svgs/solid/expand-wide.svg

<svg xmlns="http://www.w3.org/2000/svg" viewBox="0 0 512 512"><!-- Font Awesome Pro 6.0.0-alpha2 by @fontawesome - https://fontawesome.com License - https://fontawesome.com/license (Commercial License) --><path d="M128 64H32C14.312 64 0 78.312 0 96V192C0 209.688 14.312 224 32 224S64 209.688 64 192V128H128C145.688 128 160 113.688 160 96S145.688 64 128 64ZM480 64H384C366.312 64 352 78.312 352 96S366.312 128 384 128H448V192C448 209.688 462.312 224 480 224S512 209.688 512 192V96C512 78.312 497.688 64 480 64ZM128 384H64V320C64 302.312 49.688 288 32 288S0 302.312 0 320V416C0 433.688 14.312 448 32 448H128C145.688 448 160 433.688 160 416S145.688 384 128 384ZM480 288C462.312 288 448 302.312 448 320V384H384C366.312 384 352 398.312 352 416S366.312 448 384 448H480C497.688 448 512 433.688 512 416V320C512 302.312 497.688 288 480 288Z"/></svg>

<svg xmlns="http://www.w3.org/2000/svg" viewBox="0 0 512 512"><!--! Font Awesome Pro 6.4.0 by @fontawesome - https://fontawesome.com License - https://fontawesome.com/license (Commercial License) Copyright 2023 Fonticons, Inc. --><path d="M32 64C14.3 64 0 78.3 0 96v96c0 17.7 14.3 32 32 32s32-14.3 32-32V128h64c17.7 0 32-14.3 32-32s-14.3-32-32-32H32zM64 320c0-17.7-14.3-32-32-32s-32 14.3-32 32v96c0 17.7 14.3 32 32 32h96c17.7 0 32-14.3 32-32s-14.3-32-32-32H64V320zM384 64c-17.7 0-32 14.3-32 32s14.3 32 32 32h64v64c0 17.7 14.3 32 32 32s32-14.3 32-32V96c0-17.7-14.3-32-32-32H384zM512 320c0-17.7-14.3-32-32-32s-32 14.3-32 32v64H384c-17.7 0-32 14.3-32 32s14.3 32 32 32h96c17.7 0 32-14.3 32-32V320z"/></svg>
